icons/sponsor-tiers-24.svg

<svg width="24" height="24" viewBox="0 0 24 24" fill="none" xmlns="http://www.w3.org/2000/svg">
<path d="M16.0043 1.25C18.3111 1.25 20 3.12797 20 5.75C20 8.04183 18.7709 10.2139 16.7054 12.2346C16.2236 12.7058 15.7243 13.1435 15.2231 13.5451L15.4877 14.8648L16.8627 22.3648C16.9661 22.929 16.4237 23.3957 15.8812 23.2093L12.3689 22.0019C12.2109 21.9476 12.0392 21.9476 11.8812 22.0019L8.36881 23.2093C7.82634 23.3957 7.28385 22.929 7.3873 22.3647L8.76461 14.8529L9.02612 13.5445C8.52529 13.1431 8.02617 12.7057 7.54464 12.2346C5.47915 10.2139 4.25 8.04183 4.25 5.75C4.25 3.12799 5.93894 1.25 8.24569 1.25C9.7969 1.25 11.1932 2.00155 12.0775 3.21666L12.125 3.284L12.1725 3.21667C13.0147 2.05942 14.3213 1.32263 15.7838 1.25508L16.0043 1.25ZM13.8899 14.531C13.4718 14.816 13.0625 15.0733 12.6716 15.3016L12.492 15.4041C12.2641 15.532 11.9859 15.532 11.758 15.4041L11.6868 15.3641L11.2274 15.0918C10.9448 14.9189 10.6542 14.7316 10.3592 14.5305L10.2378 15.1353L9.093 21.374L11.3936 20.5833C11.8084 20.4408 12.2544 20.423 12.677 20.5299L12.8565 20.5833L15.156 21.373L14.0146 15.1471L13.8899 14.531ZM16.0043 2.75C14.5396 2.75 13.273 3.733 12.8454 5.20873C12.6363 5.93042 11.6137 5.93042 11.4046 5.20873C10.977 3.73299 9.71045 2.75 8.24569 2.75C6.80493 2.75 5.75 3.92302 5.75 5.75C5.75 7.56104 6.78875 9.39664 8.5936 11.1623C9.81277 12.355 11.1713 13.3269 12.3277 14.0021L12.309 13.991L12.125 13.88L12.2724 13.7922C13.2294 13.2039 14.2919 12.4317 15.2868 11.5135L15.6564 11.1623C17.4613 9.39664 18.5 7.56104 18.5 5.75C18.5 3.923 17.4451 2.75 16.0043 2.75Z" fill="black"/>
</svg>

<svg xmlns="http://www.w3.org/2000/svg" width="24" height="24" viewBox="0 0 24 24"><path d="M16.004 1.25C18.311 1.25 20 3.128 20 5.75c0 2.292-1.23 4.464-3.295 6.485-.481.47-.98.909-1.482 1.31l.265 1.32 1.375 7.5a.75.75 0 01-.982.844l-3.512-1.207a.75.75 0 00-.488 0L8.37 23.209a.75.75 0 01-.982-.844l1.378-7.512.261-1.309c-.5-.4-1-.838-1.481-1.31C5.479 10.215 4.25 8.043 4.25 5.75c0-2.622 1.689-4.5 3.996-4.5 1.55 0 2.947.752 3.832 1.967l.047.067.047-.067a4.726 4.726 0 013.612-1.962l.22-.005zM13.89 14.531c-.418.285-.828.542-1.218.77l-.18.103a.75.75 0 01-.734 0l-.071-.04-.46-.272c-.282-.173-.573-.36-.868-.562l-.121.605-1.145 6.239 2.3-.79a2.248 2.248 0 011.284-.054l.18.053 2.299.79-1.141-6.226-.125-.616zM16.004 2.75c-1.464 0-2.731.983-3.159 2.459-.209.721-1.231.721-1.44 0-.428-1.476-1.695-2.459-3.16-2.459-1.44 0-2.495 1.173-2.495 3 0 1.811 1.039 3.647 2.844 5.412a19.624 19.624 0 003.734 2.84l-.019-.011-.184-.111.147-.088a19.81 19.81 0 003.015-2.278l.37-.352C17.46 9.397 18.5 7.561 18.5 5.75c0-1.827-1.055-3-2.496-3z"/></svg>
